X:454
T:Lassie Wi' the Yellow Coatie
R:Reel
B:The Athole Collection
M:C|
L:1/8
K:G
A|G2 GB degd|e/e/e gd edeg|G2 GB degd|e/f/g dB AG E:|
d|gabg aegd|Bdde gfed|gabg aegd|e/f/g dB AG E2|gabg aegd|
Bdde gfed|gabg aegd|e/f/g dG AG E||

